X:179
T: Xiao ding xiang
N: C1671
O: China, Henan, Sanmenxia
S: IV, 171]
R: Xiaodiao]
M: 2/4
L: 1/16
K: C
e8- | e2e2d2c2 | d2d2c4
E2A2A2E2 | A2A2G4
e2d2e2d2e2ed | e2d2c4
E2A2A2E2 | A2A2G4
e2d2c4 | d2BAG4
e2d2c4 | d2d2e4
B2A2B2A2 | A2A2G4
e8- | e8
B2A2B2A2 | A2A2G2E2 | D8

